frontend/public/assets/material-icons/folder-lottie-open.svg

<svg xmlns="http://www.w3.org/2000/svg" viewBox="0 0 32 32">
  <path d="M28.96692,12H9.44152a2,2,0,0,0-1.89737,1.36754L4,24V10H28a2,2,0,0,0-2-2H15.1241a2,2,0,0,1-1.28038-.46357L12.5563,6.46357A2,2,0,0,0,11.27592,6H4A2,2,0,0,0,2,8V24a2,2,0,0,0,2,2H26l4.80523-11.21213A2,2,0,0,0,28.96692,12Z" style="fill: #00bfa5"/>
  <path d="M28,10H18a4,4,0,0,0-4,4V24a4,4,0,0,0,4,4H28a4,4,0,0,0,4-4V14A4,4,0,0,0,28,10Zm0,5.5625a.47883.47883,0,0,1-.43665.465c-1.54144.20074-2.45709,1.489-3.71569,3.50232-1.23218,1.97137-2.61823,4.19049-5.32227,4.44586A.49478.49478,0,0,1,18,23.47485V22.4375a.47885.47885,0,0,1,.43665-.465c1.54144-.20074,2.45709-1.489,3.71569-3.50226,1.23218-1.97143,2.61823-4.19049,5.32227-4.44592A.49478.49478,0,0,1,28,14.52509Z" style="fill: #a7ffeb;fill-rule: evenodd"/>
</svg>

<svg xmlns="http://www.w3.org/2000/svg" viewBox="0 0 32 32"><path fill="#00bfa5" d="M28.967 12H9.442a2 2 0 0 0-1.898 1.368L4 24V10h24a2 2 0 0 0-2-2H15.124a2 2 0 0 1-1.28-.464l-1.288-1.072A2 2 0 0 0 11.276 6H4a2 2 0 0 0-2 2v16a2 2 0 0 0 2 2h22l4.805-11.212A2 2 0 0 0 28.967 12"/><path fill="#a7ffeb" d="M28 10H18a4 4 0 0 0-4 4v10a4 4 0 0 0 4 4h10a4 4 0 0 0 4-4V14a4 4 0 0 0-4-4m0 5.563a.48.48 0 0 1-.437.464c-1.541.201-2.457 1.49-3.715 3.503-1.233 1.971-2.619 4.19-5.323 4.446a.495.495 0 0 1-.525-.501v-1.038a.48.48 0 0 1 .437-.465c1.541-.2 2.457-1.489 3.715-3.502 1.233-1.971 2.619-4.19 5.323-4.446a.495.495 0 0 1 .525.501Z"/></svg>
